X:1
T:Ger the Rigger
R:polka
M:2/4
L:1/8
K:Amix
eA eA|e/f/e/d/ cB/A/|d2 d/e/f/g/|ae fe|
eA eA|e/f/e/d/ cB/A/|df/d/ ce/c/|B/A/B/c/ A2:|
ae f/e/c/e/|ae f/e/c/e/|d2 d/e/f/g/|ae fe|
ae f/e/c/e/|ae f/e/c/e/|df/d/ ce/c/|B/A/B/c/ A2:|
